**kern	**kern	**dynam
*part1	*part1	*part1
*staff2	*staff1	*
*I"Piano	*	*
*clefF4	*clefG2	*
*k[b-e-a-]	*k[b-e-a-]	*
=1	=1	=1
2G	2e- 2b- 2ee-	f
=	=	=
4A-	4e- 4a- 4cc	.
4B-	4e- 4g 4b-	.
=	=	=
4c	4e- 4a-	.
4B-	4e- 4g	>
=	=	=
2A-	2c 2e- 2f	.
=	=	=
*	*^	*
2A-	4g	2B- 2d	]
.	4f	.	.
*	*v	*v	*
=	=	=
4G	4B- 4e- 4b-	<
*^	*	*
4F#X	4AAn	4e-	.
*v	*v	*	*
=	=	=
2BB-	4.G 4.B- 4.e-	[
.	8B- 8d 8f	.
=	=	=
4E-	4B- 4e- 4g	.
8r	8r	.
8E-	8B- 8e- 8g	p
=	=	=
*-	*-	*-
!!!system-decoration: {(s1,s2)}
